icons/lines/messages.svg

<svg xmlns="http://www.w3.org/2000/svg" width="24" height="24" viewBox="0 0 24 24" fill="none" stroke="currentColor" stroke-width="2" stroke-linecap="round" stroke-linejoin="round" >
  <path d="M17 9C17 12.87 13.64 16 9.5 16L8.57001 17.12L8.02 17.78C7.55 18.34 6.65 18.22 6.34 17.55L5 14.6C3.18 13.32 2 11.29 2 9C2 5.13 5.36 2 9.5 2C12.52 2 15.13 3.67001 16.3 6.07001C16.75 6.96001 17 7.95 17 9Z"/>
  <path d="M21.9998 12.86C21.9998 15.15 20.8198 17.18 18.9998 18.46L17.6598 21.41C17.3498 22.08 16.4498 22.21 15.9798 21.64L14.4998 19.86C12.0798 19.86 9.91982 18.79 8.56982 17.12L9.49982 16C13.6398 16 16.9998 12.87 16.9998 9C16.9998 7.95 16.7498 6.96001 16.2998 6.07001C19.5698 6.82001 21.9998 9.57999 21.9998 12.86Z"/>
  <path d="M7 9H12"/>
  </svg>

<svg xmlns="http://www.w3.org/2000/svg" width="24" height="24" viewBox="0 0 24 24" fill="none" stroke="currentColor" stroke-width="2" stroke-linecap="round" stroke-linejoin="round">
  <path d="M7 9h5" />
  <path d="M9.5 16c4.14 0 7.5-3.13 7.5-7a6.46 6.46 0 0 0-.7-2.93C15.13 3.67 12.52 2 9.5 2 5.36 2 2 5.13 2 9c0 2.29 1.18 4.32 3 5.6l1.34 2.95a1 1 0 0 0 1.68.23z" />
  <path d="M9.5 16c4.14 0 7.5-3.13 7.5-7a6.46 6.46 0 0 0-.7-2.93c3.27.75 5.7 3.51 5.7 6.79 0 2.29-1.18 4.32-3 5.6l-1.34 2.95a1 1 0 0 1-1.68.23l-1.48-1.78c-2.42 0-4.58-1.07-5.93-2.74" />
</svg>
